X: 41132
T: Trip To Toronto
R: jig
M: 6/8
K: Dmajor
|:AFA fed|BG/A/B g2B|AF/G/A fed|c2e e2B|
DFA fed|BF/G/B g3|fed Ace|d3 d2:|
|:f3 afd|BF/G/B g2B|D3 fed|c2e e2g|
fc/a/f afd|BGB g3|fed Ace|d3 d2:|

